packages/calcite-ui-icons/icons/end-point-arc-segment-16.svg

<?xml version="1.0" encoding="UTF-8"?><svg id="icons" xmlns="http://www.w3.org/2000/svg" viewBox="0 0 16 16"><defs><style>.cls-1{fill:none;}</style></defs><path d="M10.33496,2.29199l.23047.97266c-.4585.1084-.91553.25391-1.3584.43066l-.37207-.92773c.48877-.19629.99365-.35645,1.5-.47559ZM7.42285,3.46191l.50684.86133c-.32251.18951-.62793.41425-.92969.64197v2.03479h-1.97937c-1.07153,1.42194-1.76849,3.13477-1.9549,5h.93427v3H1v-3h1.0625c.17743-1.96362.86463-3.77704,1.9375-5.30609v-2.69391h2.60535c.26636-.19116.5379-.37421.8175-.53809ZM3,13h-1v1h1v-1ZM6,5h-1v1h1v-1ZM15,1v3h-3V1h3ZM14,2h-1v1h1v-1Z"/><rect class="cls-1" width="16" height="16"/></svg>

<svg xmlns="http://www.w3.org/2000/svg" viewBox="0 0 16 16"><path d="M10.335 2.292l.23.973a9.7 9.7 0 0 0-1.358.43l-.372-.927a10.4 10.4 0 0 1 1.5-.476zm-2.912 1.17l.507.861a9.85 9.85 0 0 0-.93.642V7H5.02a9.93 9.93 0 0 0-1.954 5H4v3H1v-3h1.063A10.925 10.925 0 0 1 4 6.694V4h2.605c.267-.191.538-.374.818-.538zM3 13H2v1h1v-1zm3-8H5v1h1V5zm9-4v3h-3V1h3zm-1 1h-1v1h1V2z"/><path fill="none" d="M0 0h16v16H0z"/></svg>
